Adwaita++/places/scalable/user-mint-desktop.svg

<svg fill="none" height="128" viewBox="0 0 128 128" width="128" xmlns="http://www.w3.org/2000/svg" xmlns:xlink="http://www.w3.org/1999/xlink">
  <linearGradient id="paint0_linear" gradientUnits="userSpaceOnUse" x1="12" x2="116" y1="64" y2="64">
    <stop offset="0" stop-color="#77767b"/>
    <stop offset=".05" stop-color="#c0bfbc"/>
    <stop offset=".1" stop-color="#9a9996"/>
    <stop offset=".9" stop-color="#9a9996"/>
    <stop offset=".95" stop-color="#c0bfbc"/>
    <stop offset="1" stop-color="#77767b"/>
  </linearGradient>
  <path d="m108 22h-88c-4.4183 0-8 3.5817-8 8v78c0 4.418 3.5817 8 8 8h88c4.418 0 8-3.582 8-8v-78c0-4.4183-3.582-8-8-8z" fill="url(#paint0_linear)"/>
  <path d="m108 12h-88c-4.4183 0-8 3.5817-8 8v80c0 4.418 3.5817 8 8 8h88c4.418 0 8-3.582 8-8v-80c0-4.4183-3.582-8-8-8z" fill="#deddda"/>
  <path d="m108 104h-88c-2.2091 0-4-1.791-4-4v-80c0-2.2091 1.7909-4 4-4h88c2.209 0 4 1.7909 4 4v80c0 2.209-1.791 4-4 4z" fill="#7aaf65"/>
  <path d="m31 98c0-2.2091 1.7909-4 4-4h58c2.2091 0 4 1.7909 4 4v6h-66z" fill="#d0e3c9"/>
  <path d="m112 20v7h-96v-7c0-2.2091 1.7909-4 4-4h88c2.209 0 4 1.7909 4 4z" fill="#d0e3c9"/>
  <rect fill="#deddda" height="6" rx="3" width="6" x="19.5" y="18.5"/>
  <rect fill="#3584e4" height="12" rx="2" width="12" x="38" y="89.25"/>
  <rect fill="#f66151" height="12" rx="2" width="12" x="58" y="89.25"/>
  <rect fill="#2ec27e" height="12" rx="2" width="12" x="78" y="89.25"/>
</svg>

<svg xmlns="http://www.w3.org/2000/svg" fill="none" width="128" height="128" viewBox="0 0 128 128">
 <path fill="url(#paint0_linear)" d="M108 22H20C15.5817 22 12 25.5817 12 30V108C12 112.418 15.5817 116 20 116H108C112.418 116 116 112.418 116 108V30C116 25.5817 112.418 22 108 22Z"/>
 <path fill="#deddda" d="M108 12H20C15.5817 12 12 15.5817 12 20V100C12 104.418 15.5817 108 20 108H108C112.418 108 116 104.418 116 100V20C116 15.5817 112.418 12 108 12Z"/>
 <path fill="#7aaf65" d="M108 104H20C17.7909 104 16 102.209 16 100V20C16 17.7909 17.7909 16 20 16H108C110.209 16 112 17.7909 112 20V100C112 102.209 110.209 104 108 104Z"/>
 <path fill="#d0e3c9" d="M31 98C31 95.7909 32.7909 94 35 94H93C95.2091 94 97 95.7909 97 98V104H31V98Z"/>
 <path fill="#d0e3c9" d="M112 20V27H16V20C16 17.7909 17.7909 16 20 16H108C110.209 16 112 17.7909 112 20Z"/>
 <rect fill="#deddda"  width="6"  height="6"  x="19.5" y="18.5"  rx="3"/>
 <rect fill="#3584e4"  width="12" height="12" x="38"   y="89.25" rx="2"/>
 <rect fill="#f66151"  width="12" height="12" x="58"   y="89.25" rx="2"/>
 <rect fill="#2ec27e"  width="12" height="12" x="78"   y="89.25" rx="2"/>
 <defs>
  <linearGradient id="paint0_linear" x1="12" x2="116" y1="64" y2="64" gradientUnits="userSpaceOnUse">
   <stop              stop-color="#77767b"/>
   <stop offset=".05" stop-color="#c0bfbc"/>
   <stop offset=".1"  stop-color="#9a9996"/>
   <stop offset=".9"  stop-color="#9a9996"/>
   <stop offset=".95" stop-color="#c0bfbc"/>
   <stop offset="1"   stop-color="#77767b"/>
  </linearGradient>
 </defs>
</svg>
